packages/icons/svg/Outline/share.svg

<svg fill="none" height="24" viewBox="0 0 24 24" width="24" xmlns="http://www.w3.org/2000/svg"><path clip-rule="evenodd" d="m18 19.0001c-.552 0-1-.448-1-1s.448-1 1-1 1 .448 1 1-.448 1-1 1zm-12.99998-6c-.552 0-1-.448-1-1s.448-1 1-1 1 .448 1 1-.448 1-1 1zm12.99998-8.00003c.552 0 1 .448 1 .99999 0 .552-.448 1-1 1s-1-.448-1-1c0-.55199.448-.99999 1-.99999zm0 9.99993c-.817 0-1.557.33-2.099.861l-7.935-3.526c.013-.111.034-.221.034-.335s-.021-.224-.034-.335l7.935-3.526c.542.531 1.282.861 2.099.861 1.654 0 3-1.346 3-3s-1.346-3-3-3-3 1.346-3 3c0 .114.021.224.034.335l-7.935 3.526c-.542-.531-1.282-.861-2.099-.861-1.654 0-3 1.346-3 3s1.346 3 3 3c.817 0 1.557-.33 2.099-.861l7.935 3.526c-.013.111-.034.221-.034.335 0 1.654 1.346 3 3 3s3-1.346 3-3-1.346-3-3-3z" fill="#6b7280" fill-rule="evenodd"/></svg>

<svg width="24" height="24" viewBox="0 0 24 24" fill="none" xmlns="http://www.w3.org/2000/svg">
<g id="Icon/Outline/share">
<path id="Mask" fill-rule="evenodd" clip-rule="evenodd" d="M18 19C17.448 19 17 18.552 17 18C17 17.448 17.448 17 18 17C18.552 17 19 17.448 19 18C19 18.552 18.552 19 18 19ZM5 13C4.448 13 4 12.552 4 12C4 11.448 4.448 11 5 11C5.552 11 6 11.448 6 12C6 12.552 5.552 13 5 13ZM18 5C18.552 5 19 5.448 19 6C19 6.552 18.552 7 18 7C17.448 7 17 6.552 17 6C17 5.448 17.448 5 18 5ZM18 15C17.183 15 16.443 15.33 15.901 15.861L7.966 12.335C7.979 12.224 8 12.114 8 12C8 11.886 7.979 11.776 7.966 11.665L15.901 8.139C16.443 8.67 17.183 9 18 9C19.654 9 21 7.654 21 6C21 4.346 19.654 3 18 3C16.346 3 15 4.346 15 6C15 6.114 15.021 6.224 15.034 6.335L7.099 9.861C6.557 9.33 5.817 9 5 9C3.346 9 2 10.346 2 12C2 13.654 3.346 15 5 15C5.817 15 6.557 14.67 7.099 14.139L15.034 17.665C15.021 17.776 15 17.886 15 18C15 19.654 16.346 21 18 21C19.654 21 21 19.654 21 18C21 16.346 19.654 15 18 15Z" fill="#000000"/>
</g>
</svg>
